X:313
T:Waddington Tune. JaW.313
M:2/4
L:1/8
Q:1/4=80
S:James Winder Ms, Lancashire, 1835-41
R:.March
O:England
A:Wyresdale,Lancashire
N:There is a "E" at the end of the last bar of the tune, and it doesn't
N:fit, so I've left it off..CGP
Z:vmp.Chris Partington, Aug 2004
K:F
c|fa/f/ fa/g/|ff/g/ af|c'a b/a/g/f/|e/f/g/e/ cc|!
fa/g/ fa/g/|ff/g/ a/g/f/e/|db a/g/f/e/|faf:|!
|:z|Az Az|Bz Az|BB dd|c2cz|!
AA Az|AA BB|A2B2|A3:|!
|:a/b/|c'c'/b/ aa/g/|f/e/f/g/ f/g/a/b/|\
c'a b/a/g/f/|cc c/d/e/f/|!
b2ac'|b/a/g/f/ f/e/d/c/|df cf|g/f/g/a/ f ?

